!!!!SEGMENT: pl-cz--iii-226--005_fleming-jan--missa-in-c-agnus.krn
!!!cenid: 17xx:219
!!!COM: Fleming, Jan
!!!COM-rismID: pe30093579
!!!CDT: <1796->1796
!!!CNT:
!!!OPR: Missa in C
!!!OTL: Agnus
!!!OMV: 005
!!!PDT:
!!!AGN: Sacred; Mass
!!!SMS-siglum: PL-CZ
!!!SMS-shelfmark: III-226
!!!SMS-shelfwork: 001-005 M
!!!NIFC-rismSourceID: 300000324
!!!NIFC-rismChildID: 300000324
!!!NIFC-islandoraID: pl-cz:12255
!!!URL-pdf-islandora: https://repozytorium.nifc.pl/islandora/object/pl-cz%3A12255/datastream/PDF/view
!!!URL-scan: https://polish.musicsources.pl/pl/lokalizacje/galeria/rekopisy/1042 @EN{Scan on Polish Music Sources Website} @PL{Skany w portalu Dziedzictwo Muzyki Polskiej w otwartym dostępie}
!!!ONB-nifc: UWAGA: części Mszy: Kyrie, Gloria, Credo, Sanctus, Agnus
!!!AIN: 4 empty 2 fagot 2 violn 2 vox
!!!key:
**kern	**kern	**kern	**kern	**text	**kern	**text	**kern	**text	**kern	**kern	**kern	**kern
*part10	*part9	*part8	*part7	*part7	*part6	*part6	*part5	*part5	*part4	*part3	*part2	*part1
*staff10	*staff9	*staff8	*staff7	*staff7	*staff6	*staff6	*staff5	*staff5	*staff4	*staff3	*staff2	*staff1
*Iempty	*Ivioln	*Ivioln	*Iempty	*	*Ivox	*	*Ivox	*	*Iempty	*Iempty	*Ifagot	*Ifagot
*I"Baſso [continuo]	*I"Violino Secondo.	*I"Violino Primo;	*I"Baſso	*	*I"Canto Secondo;	*	*I"Canto Primo;	*	*I"Cornu Secondo; in C	*I"Cornu Primo in C	*I"Fagotto Secondo.	*I"Fagotto Primo.
*I'Bc	*I'Vn II	*I'Vn I	*I'B	*	*I'C II	*	*I'C	*	*I'Cor II	*I'Cor I	*I'Fag.	*I'Fag.
*clefF4	*clefG2	*clefG2	*clefF4	*	*clefC1	*	*clefC1	*	*clefG2	*clefG2	*clefF4	*clefF4
*k[]	*k[]	*k[]	*k[]	*	*k[]	*	*k[]	*	*k[]	*k[]	*k[]	*k[]
*G:	*G:	*G:	*G:	*	*G:	*	*G:	*	*G:	*G:	*G:	*G:
*M4/4	*M4/4	*M4/4	*M4/4	*	*M4/4	*	*M4/4	*	*M4/4	*M4/4	*	*
*met(c)	*met(c)	*met(c)	*met(c)	*	*met(c)	*	*met(c)	*	*met(c)	*met(c)	*	*
=1	=1	=1	=1	=1	=1	=1	=1	=1	=1	=1	=1	=1
*	*8\right	*8\right	*4\right	*	*	*	*4\right	*	*	*8\right	*	*
!	!LO:TX:a:t=ad	!LO:TX:a:t=ad&colon;	!	!	!	!	!LO:TX:a:t=ad	!	!	!	!	!
!LO:TX:a:t=ad	!	!	!LO:TX:a:t=ad&colon;	!	!LO:TX:a:t=ad&colon;	!	!	!	!LO:TX:a:t=ad&colon;	!LO:TX:a:t=ad&colon;	!	!
8.C/L	8.cc\L	8.ee\L	4.c\	A-	4.e/	A-	4.ee\	A-	8r	8.cc\L	1ryy	1ryy
.	.	.	.	.	.	.	.	.	8e/L	.	.	.
*	*16\right	*16\right	*	*	*	*	*	*	*	*16\right	*	*
16C/K	16cc\K	16ee\K	.	.	.	.	.	.	.	16cc\K	.	.
8.C/	8.cc\	8.ee\	.	.	.	.	.	.	8e/	8cc\	.	.
*	*	*	*8\right	*	*	*	*8\right	*	*	*	*	*
.	.	.	8G\	-gnus	8e/	-gnus	8ee\	-gnus	8e/J	8cc\J	.	.
16C/Jk	16cc\Jk	16ee\Jk	.	.	.	.	.	.	.	.	.	.
*16\right	*	*	*	*	*	*	*	*	*	*	*	*
16.c\LL	8.cc\L	8.ee\L	8C/	De-	8e/	De-	8ee\	De-	4e/	8cc\L	.	.
*32\right	*	*	*	*	*	*	*	*	*	*	*	*
32c\K	.	.	.	.	.	.	.	.	.	.	.	.
16.G\	.	.	8C/	-i	8e/	-i	8ee\	-i	.	8cc\	.	.
.	16cc\K	16ee\K	.	.	.	.	.	.	.	.	.	.
32G\JJk	.	.	.	.	.	.	.	.	.	.	.	.
16.E\LL	8.cc\	8.ee\	4r	.	4r	.	4r	.	4r	8cc\	.	.
32E\K	.	.	.	.	.	.	.	.	.	.	.	.
16.C\	.	.	.	.	.	.	.	.	.	8cc\J	.	.
.	16cc\Jk	16ee\Jk	.	.	.	.	.	.	.	.	.	.
32C\JJk	.	.	.	.	.	.	.	.	.	.	.	.
=2	=2	=2	=2	=2	=2	=2	=2	=2	=2	=2	=2	=2
*	*	*	*	*	*4\right	*	*	*	*	*	*	*
4C/	8cc\L	8ee\L	8D\L	A-	4.a\	A-	4.cc\	A-	2r	2r	1ryy	1ryy
.	16cc\L	16ee\L	8E\J	.	.	.	.	.	.	.	.	.
.	16ee\JJ	16gg\JJ	.	.	.	.	.	.	.	.	.	.
.	.	8qqgg/	.	.	.	.	.	.	.	.	.	.
*8\right	*	*	*	*	*	*	*	*	*	*	*	*
8D\L	8a\L	8ff#X\L	8F#X\	gnus	.	.	.	.	.	.	.	.
*	*	*	*	*	*8\right	*	*	*	*	*	*	*
8F#X\J	16a\L	16ff#\L	8D\	.	8a\	-gnus	8cc\	-gnus	.	.	.	.
.	16cc\JJ	16aa\JJ	.	.	.	.	.	.	.	.	.	.
*4\right	*4\right	*	*	*	*	*	*	*	*	*4\right	*	*
4G\	4b\	8gg\L	8G\	De-	8g\	De-	8b\	De-	4g/	4dd\	.	.
.	.	8dd\J	8G\	-i	8g\	-i	8b\	-i	.	.	.	.
4r	(16b/LL	(16dd\LL	4r	.	4r	.	4r	.	4r	4r	.	.
.	16a/)	16cc\)	.	.	.	.	.	.	.	.	.	.
.	(16a/	(16cc\	.	.	.	.	.	.	.	.	.	.
.	16g/JJ)	16b\JJ)	.	.	.	.	.	.	.	.	.	.
=3	=3	=3	=3	=3	=3	=3	=3	=3	=3	=3	=3	=3
!LO:TX:a:t=P:mixedbeam:problem	!	!	!	!	!	!	!	!	!	!	!	!
8GG/L	(16fn/LL	(16b/LL	8D/L	A-	4.f/	A-	4.b\	A-	0r	0r	1ryy	1ryy
.	16d/)	16f/)	.	.	.	.	.	.	.	.	.	.
8G\	(16f/	(16b/	8BB/J	.	.	.	.	.	.	.	.	.
.	16d/JJ)	16f/JJ)	.	.	.	.	.	.	.	.	.	.
8Fn\	(16f/LL	(16b/LL	8GG/	.	.	.	.	.	.	.	.	.
.	16d/)	16f/)	.	.	.	.	.	.	.	.	.	.
8D\J	(16f/	(16b/	8BB/	-gnus	8f/	-gnus	8b\	-gnus	.	.	.	.
.	16d/JJ)	16f/JJ)	.	.	.	.	.	.	.	.	.	.
8E\L	16e/LL	(16cc/LL	8C/	De-	8e/	De-	8cc\	De-	.	.	.	.
.	16c/	16e/)	.	.	.	.	.	.	.	.	.	.
8C\J	16e/	(16cc/	8C/	-i	8e/	-i	8cc\	-i	.	.	.	.
.	16c/JJ	16e/JJ)	.	.	.	.	.	.	.	.	.	.
*	*	*	*	*	*	*	*16\right	*	*	*	*	*
8r	16e/LL	(16cc/LL	4r	.	4r	.	16gg\LL	A-	.	.	.	.
.	16c/	16e/)	.	.	.	.	16ee\	.	.	.	.	.
8C/	16e/	(16cc/	.	.	.	.	16dd\	.	.	.	.	.
.	16c/JJ	16e/JJ)	.	.	.	.	16cc\JJ	.	.	.	.	.
=4	=4	=4	=4	=4	=4	=4	=4	=4	=4	=4	=4	=4
!LO:TX:a:t=P:problem=mixedbeam	!	!	!	!	!	!	!	!	!	!	!	!
8GG/L	16f/LL	(16b/LL	8D/L	A-	4.f/	A-	4.b\	.	.	.	1ryy	1ryy
.	16d/	16f/)	.	.	.	.	.	.	.	.	.	.
8G\	16f/	(16b/	8BB/J	.	.	.	.	.	.	.	.	.
.	16d/JJ	16f/JJ)	.	.	.	.	.	.	.	.	.	.
8Fn\	16f/LL	(16b/LL	8GG/	.	.	.	.	.	.	.	.	.
.	16d/	16f/)	.	.	.	.	.	.	.	.	.	.
8D\J	16f/	(16b/	8BB/	-gnus	8f/	-gnus	8b\	-gnus	.	.	.	.
.	16d/JJ	16f/JJ)	.	.	.	.	.	.	.	.	.	.
!	!LO:LB:g=original	!LO:LB:g=original	!	!	!	!	!	!	!	!	!	!
8E\L	16e/LL	(16cc/LL	8C/	De-	8e/	De-	8cc\	De-	.	.	.	.
.	16c/	16e/)	.	.	.	.	.	.	.	.	.	.
8C\J	16e/	(16cc/	8C/	-i	8e/	-i	8cc\	-i	.	.	.	.
.	16c/JJ	16e/JJ)	.	.	.	.	.	.	.	.	.	.
8r	16e/LL	(16cc/LL	4r	.	4r	.	16gg\LL	A-	.	.	.	.
.	16c/	16e/)	.	.	.	.	16ee\	.	.	.	.	.
8C/	16e/	(16cc/	.	.	.	.	16dd\	.	.	.	.	.
.	16c/JJ	16e/JJ)	.	.	.	.	16cc\JJ	.	.	.	.	.
!	!	!	!LO:LB:g=original	!	!	!	!	!	!	!	!	!
=5	=5	=5	=5	=5	=5	=5	=5	=5	=5	=5	=5	=5
*	*	*	*	*	*	*	*	*	*4\right	*	*	*
8D\L	16a\LL	(16d/LL 16a 16ff#X	8D\	A-	8cc\	A-	8ff#X\	.	4.dd\	4.dd\	1ryy	1ryy
.	16cc\	16aa/)	.	.	.	.	.	.	.	.	.	.
8A\	16a\	(16ff#/	8A\	-gus	8cc\	-gnus	8ff#\	-gnus	.	.	.	.
.	16cc\JJ	16aa/JJ)	.	.	.	.	.	.	.	.	.	.
8F#X\	16a\LL	(16ff#\LL	8F#X\	De-	8cc\	De-	8ff#\	De-	.	.	.	.
.	16cc\	16aa\)	.	.	.	.	.	.	.	.	.	.
*	*	*	*16\right	*	*16\right	*	*	*	*8\right	*	*	*
8D\J	16a\	(16ff#\	16D\	-i	16cc\	-i	16ff#\	-i	8dd\	8dd\	.	.
.	16cc\JJ	16aa\JJ)	16D\	qui	16cc\	qui	16ff#\	qui	.	.	.	.
4GG/	16b\LL	16gg\LL	4G\	tol-	8b\	tol-	16gg\LL	tol-	4g/	4dd\	.	.
.	16dd\JJ	16bb\JJ	.	.	.	.	16dd\JJ	.	.	.	.	.
*	*	*4\right	*	*	*	*	*	*	*	*	*	*
.	4b/	4dd\	.	.	4b\	-lis	4dd\	-lis	.	.	.	.
8r	.	.	8F#X\	-lis	.	.	.	.	8r	8r	.	.
8GG\	8a/	8cc\	8D\	pec-	8a\	pec-	8cc\	pec-	8dd\	8dd\	.	.
!LO:LB:g=original	!	!	!	!	!	!	!LO:LB:g=original	!	!	!	!	!
=6	=6	=6	=6	=6	=6	=6	=6	=6	=6	=6	=6	=6
*	*Xtuplet	*Xtuplet	*	*	*	*	*	*	*	*	*	*
!LO:TX:a:t=P:problem=mixedbeam	!	!	!	!	!	!	!	!	!	!	!	!
8G\L	24g/LL	(24b\LL	8G\	-ca-	8b\	-ca-	16ee\LL	-ca-	4dd\	4dd\	1ryy	1ryy
.	24a/	24ff#X\	.	.	.	.	.	.	.	.	.	.
.	.	.	.	.	.	.	16gg\JJ	.	.	.	.	.
.	24b/JJ	24gg\JJ)	.	.	.	.	.	.	.	.	.	.
8C\	24cc/LL	(24ee\LL	8E\	-ta	16cc\LL	-ta	16ee\LL	-ta	.	.	.	.
.	24b/	24dd\	.	.	.	.	.	.	.	.	.	.
.	.	.	.	.	16a\JJ	.	16cc\JJ	.	.	.	.	.
.	24a/JJ	24cc\JJ)	.	.	.	.	.	.	.	.	.	.
8D\	8g/L	8b/L	8C/L	mun-	8g\L	mun-	8b\L	mun-	4dd\	8dd\L	.	.
8DD/J	8f#X/J	8a/J	8D/J	.	8a\J	.	8a\J	.	.	8dd\J	.	.
!	!	!LO:TX:a:t=P:problem=mixedbeam	!	!	!	!	!	!	!	!	!	!
4GG/	16g/LL	16g/LL	4GG/	-di	4b\	-di	4g\	-di	4g/	4dd\	.	.
.	16b/	16gg\	.	.	.	.	.	.	.	.	.	.
.	16a/	16ff#X\	.	.	.	.	.	.	.	.	.	.
.	16b/JJ	16gg\JJ	.	.	.	.	.	.	.	.	.	.
8r	16a/LL	16ff#\LL	4r	.	4r	.	4r	.	4r	4r	.	.
.	16b/	16gg\	.	.	.	.	.	.	.	.	.	.
8GG/	16a/	16ff#\	.	.	.	.	.	.	.	.	.	.
.	16b/JJ	16gg\JJ	.	.	.	.	.	.	.	.	.	.
=7	=7	=7	=7	=7	=7	=7	=7	=7	=7	=7	=7	=7
.	.	.	.	.	.	.	8qqgg/	.	.	.	.	.
8D\L	16a\LL	16d/LL 16a 16ff#X	8D\	A-	8cc\	A-	8ff#X\	A-	4.dd\	4.dd\	1ryy	1ryy
.	16cc\	16aa/	.	.	.	.	.	.	.	.	.	.
8A\	16a\	16ff#/	8A\	-gnus	8cc\	-gnus	8ff#\	-gnus	.	.	.	.
.	16cc\JJ	16aa/JJ	.	.	.	.	.	.	.	.	.	.
8F#X\	16a\LL	16ff#\LL	8F#X\	De-	8cc\	De-	8ff#\	De-	.	.	.	.
.	16cc\	16aa\	.	.	.	.	.	.	.	.	.	.
8D\J	16a\	16ff#\	16D\	-i	16cc\	-i	16ff#\	-i	8dd\	8dd\	.	.
.	16cc\JJ	16aa\JJ	16D\	qui	16cc\	qui	16ff#\	qui	.	.	.	.
!	!	!LO:LB:g=original	!	!	!LO:LB:g=original	!	!	!	!	!	!	!
4GG/	16b\LL	(24gg\LL	4G\	tol-	8b\	tol-	16gg\LL	tol-	4dd\	4dd\	.	.
.	.	24aa\	.	.	.	.	.	.	.	.	.	.
.	16dd\JJ	.	.	.	.	.	16dd\JJ	.	.	.	.	.
.	.	24bb\JJ)	.	.	.	.	.	.	.	.	.	.
.	4b/	4dd\	.	.	4b\	-lis	4dd\	-lis	.	.	.	.
8r	.	.	8F#X\	-lis	.	.	.	.	8r	8r	.	.
8D\	8a/	8cc\	8D\	pec-	8a\	pec-	8cc\	pec-	8dd\	8dd\	.	.
!	!	!	!	!	!	!	!	!	!LO:LB:g=original	!LO:LB:g=original	!	!
=8	=8	=8	=8	=8	=8	=8	=8	=8	=8	=8	=8	=8
*	*	*	*	*	*Xtuplet	*	*Xtuplet	*	*2\right	*	*	*
!LO:TX:a:t=P:problem=mixedbeam	!	!	!	!	!	!	!	!	!	!	!	!
8G\L	16g/LL	16b\LL	8G\	-ca-	8b\	-ca-	24b\LL	-ca-	2dd\	4dd\	1ryy	1ryy
.	.	.	.	.	.	.	24ff#X\	.	.	.	.	.
.	16b/JJ	16gg\JJ	.	.	.	.	.	.	.	.	.	.
.	.	.	.	.	.	.	24gg\JJ	.	.	.	.	.
8C\	24cc/LL	24ee\LL	8E\	-ta	24cc\LL	-ta	24ee\LL	-ta	.	.	.	.
.	24b/	24dd\	.	.	24b\	.	24dd\	.	.	.	.	.
.	24a/JJ	24cc\JJ	.	.	24a\JJ	.	24cc\JJ	.	.	.	.	.
8D\	8g/L	8b/L	8C/L	mun-	8g/L	mun-	8b\L	mun-	.	4dd\	.	.
8DD/J	16f#X/L	8a/J	8D/J	.	8f#X/J	.	8a\J	.	.	.	.	.
.	16a/JJ	.	.	.	.	.	.	.	.	.	.	.
!	!LO:LB:g=original	!	!	!	!	!	!	!	!	!	!	!
!	!	!LO:TX:a:t=P:problem=mixedbeam	!	!	!	!	!	!	!	!	!	!
4GG/	8.b\L	8.g/L	4GG/	-di	4g\	-di	4g\	-di	4g/	4dd\	.	.
.	16b\Jk	16gg\Jk	.	.	.	.	.	.	.	.	.	.
.	.	.	.	.	8qqb/	.	8qqdd/	.	.	.	.	.
!	!	!	!LO:LB:g=original	!	!	!	!	!	!	!	!	!
8D\L	16b/LL	16dd\LL	8D\L	par-	8a\L	par-	8cc\L	par-	4r	4r	.	.
.	16a/	16cc\	.	.	.	.	.	.	.	.	.	.
8F#X\J	16a/	16cc\	8F#X\J	.	8a\J	.	8cc\J	.	.	.	.	.
.	16g/JJ	16b\JJ	.	.	.	.	.	.	.	.	.	.
=9	=9	=9	=9	=9	=9	=9	=9	=9	=9	=9	=9	=9
.	.	.	.	.	8qqa/	.	.	.	.	.	.	.
4G\	8.g/L	8.b\L	4G\	-ce	4g\	-ce	4b\	-ce	1r	1r	1ryy	1ryy
.	16b/Jk	16gg\Jk	.	.	.	.	.	.	.	.	.	.
!LO:TX:a:t=P:problem=mixedbeam	!	!	!	!	!	!	!	!	!	!	!	!
.	.	.	.	.	8qqb/	.	8qqdd/	.	.	.	.	.
8D\L	16b/LL	16dd\LL	8D\L	par-	8a\L	par-	8cc\L	par-	.	.	.	.
.	16a/	16cc\	.	.	.	.	.	.	.	.	.	.
8DD/J	16a/	16cc\	8F#X\J	.	8a\J	.	8cc\J	.	.	.	.	.
.	16g/JJ	16b\JJ	.	.	.	.	.	.	.	.	.	.
.	.	.	.	.	8qqa/	.	.	.	.	.	.	.
4GG/	16g/LL	16b\LL	4G\	-ce	4g\	-ce	4b\	-ce	.	.	.	.
.	16g/	16b\	.	.	.	.	.	.	.	.	.	.
.	16g/	16b\	.	.	.	.	.	.	.	.	.	.
.	16g/JJ	16b\JJ	.	.	.	.	.	.	.	.	.	.
!LO:TX:a:t=P:problem=mixedbeam	!	!	!	!	!	!	!	!	!	!	!	!
8G/L	16b\LL	16gg\LL	8G\	par-	8b\	par-	8gg\	par-	.	.	.	.
.	16b\	16gg\	.	.	.	.	.	.	.	.	.	.
8c\J	16b\	16gg\	8G\	-ce	8b\	-ce	8gg\	-ce	.	.	.	.
.	16b\JJ	16gg\JJ	.	.	.	.	.	.	.	.	.	.
=10	=10	=10	=10	=10	=10	=10	=10	=10	=10	=10	=10	=10
*	*^	*	*	*	*	*	*	*	*	*	*	*
*	*	*	*^	*	*	*	*	*	*	*	*	*	*
.	.	.	.	.	.	.	.	.	8qqff/	.	.	.	.	.
*	*	*	*	*	*2\right	*	*2\right	*	*2\right	*	*	*	*	*
8c\L	16cc\LL	2ryy	16ee\LL	2ryy	2c\	no-	2cc\	no-	2ee\	no-	8r	8r	1ryy	1ryy
.	16cc\	.	16ee\	.	.	.	.	.	.	.	.	.	.	.
8c\	16cc\	.	16ee\	.	.	.	.	.	.	.	8cc\L	8ee\L	.	.
.	16cc\JJ	.	16ee\JJ	.	.	.	.	.	.	.	.	.	.	.
8c\	16cc\LL	.	16ee\LL	.	.	.	.	.	.	.	8cc\	8ee\	.	.
.	16cc\	.	16ee\	.	.	.	.	.	.	.	.	.	.	.
8c\J	16cc\	.	16ee\	.	.	.	.	.	.	.	8cc\J	8ee\J	.	.
.	16cc\JJ	.	16ee\JJ	.	.	.	.	.	.	.	.	.	.	.
.	.	.	.	.	.	.	.	.	8qqdd/	.	.	.	.	.
8d\L	16a/LL	16f#X\LL	16ff#X/LL	16cc\LL	4.d\	.	2a\	.	2cc\	.	8r	8r	.	.
.	16a/	16f#\	16ff#/	16cc\	.	.	.	.	.	.	.	.	.	.
!LO:TX:a:t=P:problem=mixedbeam	!	!	!	!	!	!	!	!	!	!	!	!	!	!
8D/	16a/	16f#\	16ff#/	16cc\	.	.	.	.	.	.	8cc\L	8cc\L	.	.
.	16a/JJ	16f#\JJ	16ff#/JJ	16cc\JJ	.	.	.	.	.	.	.	.	.	.
8D/	16a/LL	16f#\LL	16ff#/LL	16cc\LL	.	.	.	.	.	.	8cc\	8cc\	.	.
.	16a/	16f#\	16ff#/	16cc\	.	.	.	.	.	.	.	.	.	.
8D/J	16a/	16f#\	16ff#/	16cc\	8A\	.	.	.	.	.	8cc\J	8cc\J	.	.
.	16a/JJ	16f#\JJ	16ff#/JJ	16cc\JJ	.	.	.	.	.	.	.	.	.	.
*	*v	*v	*	*	*	*	*	*	*	*	*	*	*	*
*	*	*v	*v	*	*	*	*	*	*	*	*	*	*
!	!	!LO:LB:g=original	!	!	!	!	!	!	!	!	!	!
=11	=11	=11	=11	=11	=11	=11	=11	=11	=11	=11	=11	=11
*	*^	*	*	*	*	*	*	*	*	*	*	*
4GG/	16g/LL	2ryy	16gg\LL	4.G\	-bis	4.g\	-bis	4.b\	-bis	4g/	4dd\	1ryy	1ryy
.	16b/	.	16gg\	.	.	.	.	.	.	.	.	.	.
.	16a/	.	16ff#X\	.	.	.	.	.	.	.	.	.	.
.	16b/JJ	.	16gg\JJ	.	.	.	.	.	.	.	.	.	.
8r	16a/LL	.	16ff#\LL	.	.	.	.	.	.	4r	4r	.	.
.	16b/	.	16gg\	.	.	.	.	.	.	.	.	.	.
8G\	16a/	.	16ff#\	16G\	mi-	16g\	mi-	16b\	mi-	.	.	.	.
.	16b/JJ	.	16gg\JJ	16G\	-se-	16g\	-se-	16b\	-se-	.	.	.	.
.	.	.	8qqdd/	.	.	8qqg/	.	.	.	.	.	.	.
8D\L	16a/LL	16f#X\LL	16cc\LL	4.D\	-re-	4.f#X/	-re-	4.a\	-re-	4.dd\	4.dd\	.	.
.	16a/	16f#\	16cc\	.	.	.	.	.	.	.	.	.	.
8E\	16a/	16f#\	16cc\	.	.	.	.	.	.	.	.	.	.
.	16a/JJ	16f#\JJ	16cc\JJ	.	.	.	.	.	.	.	.	.	.
8F#X\	16a/LL	16f#\LL	16cc\LL	.	.	.	.	.	.	.	.	.	.
.	16a/	16f#\	16cc\	.	.	.	.	.	.	.	.	.	.
8D\J	16a/	16f#\	16cc\	8F#X\	.	8a/	.	8cc\	.	8dd\	8dd\	.	.
.	16a/JJ	16f#\JJ	16cc\JJ	.	.	.	.	.	.	.	.	.	.
*	*v	*v	*	*	*	*	*	*	*	*	*	*	*
!	!	!LO:LB:g=original	!	!	!	!	!LO:LB:g=original	!	!	!	!	!
=12	=12	=12	=12	=12	=12	=12	=12	=12	=12	=12	=12	=12
!LO:TX:a:t=P:problem=mixedbeam	!	!	!	!	!	!	!	!	!	!	!	!
8G\L	16g/LL	16gg\LL	4G\	-re	4g\	-re	4b\	-re	4g/	4dd\	1ryy	1ryy
.	16b/	16gg\	.	.	.	.	.	.	.	.	.	.
8GG/J	16a/	16ff#X\	.	.	.	.	.	.	.	.	.	.
.	16b/JJ	16gg\JJ	.	.	.	.	.	.	.	.	.	.
8r	16a/LL	16ff#\LL	8r	.	8r	.	8r	.	8r	8r	.	.
.	16b/	16gg\	.	.	.	.	.	.	.	.	.	.
8G\	16a/	16gg\	16G\	mi-	16b\	mi-	16dd\	mi-	8dd\	8dd\L	.	.
.	16b/JJ	16dd\JJ	16G\	-se-	16b\	-se-	16dd\	-se-	.	.	.	.
.	8qqb/	8qqdd/	.	.	8qqb/	.	8qqdd/	.	.	.	.	.
8D/L	16a/LL	16cc\LL	16D\LL	-re-	8a\	-re-	8cc\	-re-	8dd\L	8dd\	.	.
.	16g/	16b\	16F#X\JJ	.	.	.	.	.	.	.	.	.
8GG/J	16g/	16b\	8G\	-re	8g\	-re	8b\	-re	8dd\J	8dd\J	.	.
.	16g/JJ	16b\JJ	.	.	.	.	.	.	.	.	.	.
8r	16g/LL	16b\LL	8r	.	8r	.	8r	.	8r	8r	.	.
.	16b/	16dd\	.	.	.	.	.	.	.	.	.	.
8G\	16b/	16gg\	16G\	mi-	16b\	mi-	16dd\	mi-	8dd\	8dd\	.	.
.	16b/JJ	16dd\JJ	16G\	-se-	16b\	-se-	16dd\	-se-	.	.	.	.
!LO:LB:g=original	!	!	!LO:LB:g=original	!	!	!	!	!	!	!	!	!
=13	=13	=13	=13	=13	=13	=13	=13	=13	=13	=13	=13	=13
.	8qqb/	8qqdd/	.	.	8qqb/	.	8qqdd/	.	.	.	.	.
8D/L	16a/LL	16cc\LL	8D\	-re-	8a\	-re-	8cc\	-re-	8dd\L	8dd\L	1ryy	1ryy
.	16g/	16b\	.	.	.	.	.	.	.	.	.	.
8GG/J	16g/	16b\	8G\	-re	8g\	-re	8b\	-re	8dd\J	8dd\J	.	.
.	16g/JJ	16b\JJ	.	.	.	.	.	.	.	.	.	.
8r	8g/L	8b\L	8r	.	8r	.	8r	.	4r	4r	.	.
8GG/	8B/J	8g\J	16G\	mi-	16b\	mi-	16g\	mi-	.	.	.	.
.	.	.	16G\	-se-	16b\	-se-	16g\	-se-	.	.	.	.
!	!	!	!	!	!LO:LB:g=original	!	!	!	!	!	!	!
.	.	.	.	.	8qqb/	.	8qqg/	.	.	.	.	.
8D/L	16A/LL	(16f#X/LL	4.D\	-re-	4.a\	-re-	4.f#X/	-re-	2r	2r	.	.
.	16c/	16a/)	.	.	.	.	.	.	.	.	.	.
8D/	16A/	(16f#/	.	.	.	.	.	.	.	.	.	.
.	16c/JJ	16a/JJ)	.	.	.	.	.	.	.	.	.	.
8C/	16A/LL	16f#/LL	.	.	.	.	.	.	.	.	.	.
.	16c/	16a/	.	.	.	.	.	.	.	.	.	.
8C/J	16A/	16f#/	8C/	-re	16a\LL	.	8f#/	-re	.	.	.	.
.	16c/JJ	16a/JJ	.	.	16cc\JJ	.	.	.	.	.	.	.
=14	=14	=14	=14	=14	=14	=14	=14	=14	=14	=14	=14	=14
16BB/LL	16B/LL	16g/LL	8BB/	no-	4b\	-re	4g\	no-	4g/	4dd\	1ryy	1ryy
16GG/	16B/	16g/	.	.	.	.	.	.	.	.	.	.
16GG/	16B/	16g/	8BB/	-bis	.	.	.	.	.	.	.	.
16GG/JJ	16B/JJ	16g/JJ	.	.	.	.	.	.	.	.	.	.
8GG/	16b/LL	16dd\LL	8r	.	4r	.	16dd\LL	.	4r	4r	.	.
.	16d/	16b\	.	.	.	.	16b\JJ	.	.	.	.	.
8r	16c/	16a\	16G\	mi-	.	.	16a\LL	-bis	.	.	.	.
.	16B/JJ	16g\JJ	16G\	-se-	.	.	16g\JJ	.	.	.	.	.
.	.	.	.	.	.	.	8qqg/	.	.	.	.	.
!	!	!LO:LB:g=original	!	!	!	!	!	!	!	!	!	!
16r	16A/LL	16f#X/LL	4.D\	-re-	4.a\	no-	4.f#X/	no-	8r	8r	.	.
16D/LL	16c/	16a/	.	.	.	.	.	.	.	.	.	.
16D/	16A/	16f#/	.	.	.	.	.	.	8dd\	8dd\	.	.
16D/JJ	16c/JJ	16a/JJ	.	.	.	.	.	.	.	.	.	.
16C/LL	16A/LL	16f#/LL	.	.	.	.	.	.	4dd\	4dd\	.	.
16C/	16c/	16a/	.	.	.	.	.	.	.	.	.	.
16C/	16A/	16f#/	8F#X\	-re	16a\LL	.	8f#/	.	.	.	.	.
16C/JJ	16c/JJ	16a/JJ	.	.	16cc\JJ	.	.	.	.	.	.	.
=15	=15	=15	=15	=15	=15	=15	=15	=15	=15	=15	=15	=15
8BB/	8B/L	8g/L	8G\	no-	4b\	-bis	4g\	-bis	4g/	4dd\	1ryy	1ryy
8r	8c/	8e/	8G\	-bis	.	.	.	.	.	.	.	.
8r	8B/	8d/	4r	.	4r	.	4r	.	4r	4r	.	.
8D\	8A/J	8c/J	.	.	.	.	.	.	.	.	.	.
!LO:TX:a:t=P:problem=mixedbeam	!	!	!	!	!	!	!	!	!	!	!	!
8G\L	8G/L	8B/L	2r	.	2r	.	2r	.	2r	2r	.	.
8GG/J	8G/J	8B/J	.	.	.	.	.	.	.	.	.	.
4GG/	4G/	4B/	.	.	.	.	.	.	.	.	.	.
!LO:SIC:o=:v:po słowie Allegro znajduje się znak powtórzenia taktu	!LO:SIC:o=:v:po słowie Allegro znajduje się znak powtórzenia taktu	!LO:SIC:o=:v:po słowie Allegro znajduje się znak powtórzenia taktu	!	!	!	!	!LO:SIC:o=:v:po słowie Allegro znajduje się znak powtórzenia taktu	!	!LO:SIC:o=:v:po słowie Allegro znajduje się znak powtórzenia taktu	!LO:SIC:o=:v:po słowie Allegro znajduje się znak powtórzenia taktu	!	!
!LO:TX:t=Dona nobis ut Kyrie \nAllegro	!LO:TX:b:t=Dona nobis ut Kyrie Allegro	!LO:TX:b:t=Dona nobis ut Kyrie Allegro	!LO:TX:b:t=Dona nobis ut Kyrie Allegro	!	!LO:TX:t=Dona nobis ut Kyrie Allegro	!	!LO:TX:t=Dona nobis ut Kyrie \nAllegro	!	!LO:TX:b:t=Dona nobis ut Kyrie Allegro.	!LO:TX:b:t=Dona nobis ut Kyrie Allegro.	!	!
==16	==16	==16	==16	==16	==16	==16	==16	==16	==16	==16	==16	==16
*-	*-	*-	*-	*-	*-	*-	*-	*-	*-	*-	*-	*-
!!!system-decoration: [(s1,s2)][(s3,s4)][(s5,s6,s7)][(s8,s9,s10)]
!!!EED: Leszek Kubiak
!!!EEV: 2020-07-02
!!!ENC: Anastazja Marusiak
!!!END: 2020-05-06
!!!YEC: Copyright 2022 Narodowy Instytut Fryderyka Chopina (https://polishscores.org)
!!!YEM: License CC-BY-4.0 (https://creativecommons.org/licenses/by/4.0)
